dist/svg/shop-duo-tone.svg

<svg xmlns="http://www.w3.org/2000/svg" viewBox="0 0 24 24"><path d="M6.958 2.28a2.85 2.85 0 0 0-1.456.651c-.249.213-3.104 3.597-3.191 3.782-.062.132-.069.321-.069 1.827-.001 1.822.014 1.977.222 2.387.117.231.44.592.641.716l.132.082.012 3.887.011 3.888.109.32c.151.445.362.783.695 1.116s.671.544 1.116.695l.32.109h13l.32-.109a2.74 2.74 0 0 0 1.116-.695c.333-.333.544-.671.695-1.116l.109-.32.011-3.888.012-3.887.132-.082c.201-.124.524-.485.641-.716.208-.41.223-.565.223-2.387-.001-1.572-.006-1.69-.077-1.84-.114-.238-2.977-3.6-3.262-3.831a3.3 3.3 0 0 0-1.04-.534c-.224-.067-.574-.072-5.2-.079-2.728-.004-5.078.007-5.222.024m10.295 1.614c.212.104.316.213 1.167 1.22l.934 1.106-3.677.01c-2.022.006-5.331.006-7.353 0l-3.677-.01.876-1.04c.481-.572.934-1.09 1.005-1.151.072-.061.221-.145.331-.188.195-.075.34-.077 5.181-.069l4.98.008zm2.987 5.089v1.223l-.117.117c-.147.148-.281.15-.584.011a2.4 2.4 0 0 0-.525-.148c-.482-.069-.724-.007-1.486.381l-.651.331-.369-.001c-.348-.001-.389-.011-.748-.174-.537-.245-.739-.308-1.146-.361-.601-.078-1.109.01-1.74.303-.707.327-1.044.326-1.748-.002-.512-.239-.842-.314-1.386-.315-.536-.001-.795.061-1.42.341-.444.199-.473.206-.828.208l-.369.001-.651-.331c-.762-.388-1.004-.45-1.486-.381-.162.024-.398.09-.525.148-.303.139-.437.137-.584-.011l-.117-.117V7.76h16.48zM5.9 11.961c.68.343 1.038.442 1.6.442.481 0 .881-.094 1.376-.321.691-.316 1.044-.321 1.678-.025.541.253.92.343 1.446.343s.905-.09 1.446-.343c.634-.296.987-.291 1.678.025.495.227.895.321 1.376.321.562 0 .92-.099 1.6-.442.308-.156.609-.282.669-.282a.9.9 0 0 1 .291.089l.181.089-.01 3.741-.011 3.742-.093.189c-.132.268-.416.534-.674.63-.202.076-.31.081-1.715.081H15.24v-4.556l-.094-.261a1.75 1.75 0 0 0-1.419-1.146c-.347-.045-3.107-.045-3.454 0a1.75 1.75 0 0 0-1.419 1.146l-.094.261v4.556H7.262c-1.405 0-1.513-.005-1.715-.081-.258-.096-.542-.362-.674-.63l-.093-.189-.011-3.742-.01-3.742.17-.085c.27-.136.361-.118.971.19m7.724 3.83c.129.086.136.207.136 2.326v2.123h-3.52v-2.123c0-2.119.007-2.24.136-2.326.024-.017.755-.03 1.624-.03s1.6.013 1.624.03"/></svg>

<svg fill="none" xmlns="http://www.w3.org/2000/svg" viewBox="0 0 24 24"><path d="M6.958 2.280 C 6.450 2.341,5.909 2.583,5.502 2.931 C 5.253 3.144,2.398 6.528,2.311 6.713 C 2.249 6.845,2.242 7.034,2.242 8.540 C 2.241 10.362,2.256 10.517,2.464 10.927 C 2.581 11.158,2.904 11.519,3.105 11.643 L 3.237 11.725 3.249 15.612 L 3.260 19.500 3.369 19.820 C 3.520 20.265,3.731 20.603,4.064 20.936 C 4.397 21.269,4.735 21.480,5.180 21.631 L 5.500 21.740 12.000 21.740 L 18.500 21.740 18.820 21.631 C 19.265 21.480,19.603 21.269,19.936 20.936 C 20.269 20.603,20.480 20.265,20.631 19.820 L 20.740 19.500 20.751 15.612 L 20.763 11.725 20.895 11.643 C 21.096 11.519,21.419 11.158,21.536 10.927 C 21.744 10.517,21.759 10.362,21.759 8.540 C 21.758 6.968,21.753 6.850,21.682 6.700 C 21.568 6.462,18.705 3.100,18.420 2.869 C 18.153 2.653,17.744 2.443,17.380 2.335 C 17.156 2.268,16.806 2.263,12.180 2.256 C 9.452 2.252,7.102 2.263,6.958 2.280 M17.253 3.894 C 17.465 3.998,17.569 4.107,18.420 5.114 L 19.354 6.220 15.677 6.230 C 13.655 6.236,10.346 6.236,8.324 6.230 L 4.647 6.220 5.523 5.180 C 6.004 4.608,6.457 4.090,6.528 4.029 C 6.600 3.968,6.749 3.884,6.859 3.841 C 7.054 3.766,7.199 3.764,12.040 3.772 L 17.020 3.780 17.253 3.894 M20.240 8.983 L 20.240 10.206 20.123 10.323 C 19.976 10.471,19.842 10.473,19.539 10.334 C 19.412 10.276,19.176 10.210,19.014 10.186 C 18.532 10.117,18.290 10.179,17.528 10.567 L 16.877 10.898 16.508 10.897 C 16.160 10.896,16.119 10.886,15.760 10.723 C 15.223 10.478,15.021 10.415,14.614 10.362 C 14.013 10.284,13.505 10.372,12.874 10.665 C 12.167 10.992,11.830 10.991,11.126 10.663 C 10.614 10.424,10.284 10.349,9.740 10.348 C 9.204 10.347,8.945 10.409,8.320 10.689 C 7.876 10.888,7.847 10.895,7.492 10.897 L 7.123 10.898 6.472 10.567 C 5.710 10.179,5.468 10.117,4.986 10.186 C 4.824 10.210,4.588 10.276,4.461 10.334 C 4.158 10.473,4.024 10.471,3.877 10.323 L 3.760 10.206 3.760 8.983 L 3.760 7.760 12.000 7.760 L 20.240 7.760 20.240 8.983 M5.900 11.961 C 6.580 12.304,6.938 12.403,7.500 12.403 C 7.981 12.403,8.381 12.309,8.876 12.082 C 9.567 11.766,9.920 11.761,10.554 12.057 C 11.095 12.310,11.474 12.400,12.000 12.400 C 12.526 12.400,12.905 12.310,13.446 12.057 C 14.080 11.761,14.433 11.766,15.124 12.082 C 15.619 12.309,16.019 12.403,16.500 12.403 C 17.062 12.403,17.420 12.304,18.100 11.961 C 18.408 11.805,18.709 11.679,18.769 11.679 C 18.829 11.680,18.960 11.720,19.060 11.768 L 19.241 11.857 19.231 15.598 L 19.220 19.340 19.127 19.529 C 18.995 19.797,18.711 20.063,18.453 20.159 C 18.251 20.235,18.143 20.240,16.738 20.240 L 15.240 20.240 15.240 17.962 L 15.240 15.684 15.146 15.423 C 14.919 14.799,14.377 14.361,13.727 14.277 C 13.380 14.232,10.620 14.232,10.273 14.277 C 9.623 14.361,9.081 14.799,8.854 15.423 L 8.760 15.684 8.760 17.962 L 8.760 20.240 7.262 20.240 C 5.857 20.240,5.749 20.235,5.547 20.159 C 5.289 20.063,5.005 19.797,4.873 19.529 L 4.780 19.340 4.769 15.598 L 4.759 11.856 4.929 11.771 C 5.199 11.635,5.290 11.653,5.900 11.961 M13.624 15.791 C 13.753 15.877,13.760 15.998,13.760 18.117 L 13.760 20.240 12.000 20.240 L 10.240 20.240 10.240 18.117 C 10.240 15.998,10.247 15.877,10.376 15.791 C 10.400 15.774,11.131 15.761,12.000 15.761 C 12.869 15.761,13.600 15.774,13.624 15.791 " stroke="none" fill-rule="evenodd"/></svg>
